packages/katcn/src/icons/svg/mailBox.svg

<svg width="24" height="25" viewBox="0 0 24 25" fill="none" xmlns="http://www.w3.org/2000/svg">
<path fill-rule="evenodd" clip-rule="evenodd" d="M6.3 4.31201C5.05228 4.31201 4 5.3643 4 6.61201V12.112H6.3C7.56371 12.112 8.6902 12.8081 9.26566 13.8114C9.80909 14.7406 10.7991 15.412 12 15.412C13.1922 15.412 14.1765 14.7503 14.7224 13.8316C15.3302 12.6495 16.5128 12.112 17.7 12.112L21 12.112C21.5523 12.112 22 12.5597 22 13.112V18.012C22 20.3643 20.0523 22.312 17.7 22.312H6.3C3.94772 22.312 2 20.3643 2 18.012V6.61201C2 4.25973 3.94772 2.31201 6.3 2.31201H17.8C20.072 2.31201 22 4.27968 22 6.61201V9.91201C22 10.4643 21.5523 10.912 21 10.912C20.4477 10.912 20 10.4643 20 9.91201V6.61201C20 5.34434 18.928 4.31201 17.8 4.31201H6.3ZM4 14.112V18.012C4 19.2597 5.05228 20.312 6.3 20.312H17.7C18.9477 20.312 20 19.2597 20 18.012V14.112L17.7 14.112C17.0983 14.112 16.6918 14.3645 16.4944 14.7592C16.4848 14.7784 16.4746 14.7973 16.4638 14.8159C15.6068 16.285 13.9977 17.412 12 17.412C10.0023 17.412 8.3932 16.285 7.53622 14.8159L7.53172 14.8082C7.30639 14.4138 6.8344 14.112 6.3 14.112H4Z" fill="black"/>
</svg>

<svg xmlns="http://www.w3.org/2000/svg" fill="none" viewBox="0 0 24 25"><path fill="#000" fill-rule="evenodd" d="M6.3 4.312c-1.248 0-2.3 1.052-2.3 2.3v5.5h2.3c1.264 0 2.39.696 2.966 1.7.543.929 1.533 1.6 2.734 1.6 1.192 0 2.177-.662 2.722-1.58.608-1.183 1.79-1.72 2.978-1.72H21a1 1 0 0 1 1 1v4.9c0 2.352-1.948 4.3-4.3 4.3H6.3c-2.352 0-4.3-1.948-4.3-4.3v-11.4c0-2.352 1.948-4.3 4.3-4.3h11.5c2.272 0 4.2 1.968 4.2 4.3v3.3a1 1 0 1 1-2 0v-3.3c0-1.268-1.072-2.3-2.2-2.3zm-2.3 9.8v3.9c0 1.248 1.052 2.3 2.3 2.3h11.4c1.248 0 2.3-1.052 2.3-2.3v-3.9h-2.3c-.602 0-1.008.252-1.206.647l-.03.057c-.857 1.469-2.466 2.596-4.464 2.596s-3.607-1.127-4.464-2.596l-.004-.008a1.44 1.44 0 0 0-1.232-.696z" clip-rule="evenodd"/></svg>
